symbols/web/filter_3/materialsymbolsrounded/filter_3_wght600gradN25fill1_20px.svg

<svg xmlns="http://www.w3.org/2000/svg" height="20" width="20"><path d="M10.333 12.083h2.438q.812 0 1.312-.51.5-.511.5-1.302v-1q0-.521-.343-.865-.344-.344-.886-.344.542 0 .886-.333.343-.333.343-.854v-.958q0-.792-.5-1.302-.5-.511-1.312-.511h-2.459q-.354 0-.614.281-.26.282-.26.636 0 .354.27.625.271.271.625.271h2.438V7.25h-1q-.333 0-.573.25-.24.25-.24.583 0 .313.25.563.25.25.584.25h.979v1.375h-2.459q-.354 0-.614.271-.26.27-.26.625 0 .354.27.635.271.281.625.281Zm-3.104 2.875q-.917 0-1.552-.635t-.635-1.552V3.396q0-.917.635-1.552.635-.636 1.552-.636h9.375q.917 0 1.552.636.636.635.636 1.552v9.375q0 .917-.636 1.552-.635.635-1.552.635Zm-3.833 3.834q-.917 0-1.552-.636-.636-.635-.636-1.552v-10.5q0-.416.334-.739.333-.323.75-.323.437 0 .77.333.334.333.334.75v10.479h10.5q.416 0 .739.334.323.333.323.77 0 .417-.333.75-.333.334-.75.334Z"/></svg>

<svg xmlns="http://www.w3.org/2000/svg" height="20" width="20"><path d="M10.333 12.083H12.771Q13.583 12.083 14.083 11.573Q14.583 11.062 14.583 10.271V9.271Q14.583 8.75 14.24 8.406Q13.896 8.062 13.354 8.062Q13.896 8.062 14.24 7.729Q14.583 7.396 14.583 6.875V5.917Q14.583 5.125 14.083 4.615Q13.583 4.104 12.771 4.104H10.312Q9.958 4.104 9.698 4.385Q9.438 4.667 9.438 5.021Q9.438 5.375 9.708 5.646Q9.979 5.917 10.333 5.917H12.771Q12.771 5.917 12.771 5.917Q12.771 5.917 12.771 5.917V7.25Q12.771 7.25 12.771 7.25Q12.771 7.25 12.771 7.25H11.771Q11.438 7.25 11.198 7.5Q10.958 7.75 10.958 8.083Q10.958 8.396 11.208 8.646Q11.458 8.896 11.792 8.896H12.771Q12.771 8.896 12.771 8.896Q12.771 8.896 12.771 8.896V10.271Q12.771 10.271 12.771 10.271Q12.771 10.271 12.771 10.271H10.312Q9.958 10.271 9.698 10.542Q9.438 10.812 9.438 11.167Q9.438 11.521 9.708 11.802Q9.979 12.083 10.333 12.083ZM7.229 14.958Q6.312 14.958 5.677 14.323Q5.042 13.688 5.042 12.771V3.396Q5.042 2.479 5.677 1.844Q6.312 1.208 7.229 1.208H16.604Q17.521 1.208 18.156 1.844Q18.792 2.479 18.792 3.396V12.771Q18.792 13.688 18.156 14.323Q17.521 14.958 16.604 14.958ZM3.396 18.792Q2.479 18.792 1.844 18.156Q1.208 17.521 1.208 16.604V6.104Q1.208 5.688 1.542 5.365Q1.875 5.042 2.292 5.042Q2.729 5.042 3.062 5.375Q3.396 5.708 3.396 6.125V16.604Q3.396 16.604 3.396 16.604Q3.396 16.604 3.396 16.604H13.896Q14.312 16.604 14.635 16.938Q14.958 17.271 14.958 17.708Q14.958 18.125 14.625 18.458Q14.292 18.792 13.875 18.792Z"/></svg>
